X:1
T:Title
%%score { ( 1 2 ) | ( 3 4 5 ) }
L:1/8
M:4/4
K:Eb
V:1 treble nm="Grand Piano"
V:2 treble 
V:3 bass 
V:4 bass 
V:5 bass 
V:1
 z4 z2[Q:1/4=100] z F | G2 G2 GF z G | [EGB]3 [EAc] [EGB]2 GA | B2 Bc B2 G2 | [EG]2 [DF]2 z2 z F | %5
 G2 G2 GF z G | [EGB]3 [EAc] [EGB]2 GA | B2 Bc B2 G2 |[M:3/4] [DF]2 E2 z2 |[M:1/4] B2 | %10
[M:4/4] c2 cc e2 c2 | c2 B2 z2 cB | =A2 AG F2 c2 | [B,B]2- [B,-EB-]2 [B,FB]2 .[B,DB]2 | %14
 [B,EG]2 [B,EB]2 [DG]3 [DF] |[M:9/8] z3 z3 z E2 |[M:4/4] [EG]2 [EG][EG] [EB]2 [EG]2 | %17
[M:3/4] [DF]4 E2 |] %18
V:2
 z4 z2 E2 | z4 z2 E2 | z4 z2 [B,E]2 | x8 | z4 z2 E2 | z4 z2 E2 | z4 z2 [B,E]2 | x8 |[M:3/4] x6 | %9
[M:1/4] x2 |[M:4/4] x8 | x8 | x8 | D2 z2 z4 | x8 | %15
[M:9/8] [G,E]2 [B,_DE]- [B,DE] [A,CE]2- [A,CE]CF |[M:4/4] x8 |[M:3/4] x6 |] %18
V:3
 z4 z2 G,A, | [E,B,E]2 [E,B,E]2 [E,E]-[E,A,E]E,-[E,B,] | E,3 E, E,2 E,F, | %3
 [G,B,E]2 [G,B,E][A,E] [G,B,E]2 [E,B,E]2 | z4 z2 .G,2 | [E,B,E]2 [E,B,E]2 [E,E]-[E,A,E]E,-[E,B,] | %6
 E,3 E, E,2 E,F, | [G,B,E]2 [G,E][A,E] [G,E]2 [E,B,E]2 |[M:3/4] [B,,A,]2 [E,G,]2 z2 | %9
[M:1/4] [E,G,E]2 |[M:4/4] [A,E]2 [A,E][A,E] [A,CE]2 [A,E]2 | [E,A,E]2 [E,G,E]2 z2 E-[G,B,E] | %12
 [F,CE]2 [F,CE][F,B,E] [F,=A,E]2 [F,A,E]2 | B,,2 C,2 D,2 z A | z4 B,4 | %15
[M:9/8] C,2 G,,- G,, A,,2- A,, z =B, |[M:4/4] [B,,B,]2 [B,,B,][B,,B,] [B,,G,]2 [B,,B,]2 | %17
[M:3/4] [B,,A,]4 [E,G,]2 |] %18
V:4
 z4 z2 E,2 | z4 .B,2 .G,2 | x8 | x8 | [B,,B,]2 [B,,B,]2 z2 E,-[E,A,] | z4 .B,2 .G,2 | x8 | x8 | %8
[M:3/4] x6 |[M:1/4] x2 |[M:4/4] x8 | z4 z2 .A,2 | x8 | z4 z2 B,,2 | E,2 G,2 z2 z A, | %15
[M:9/8] z3 z3 z A,,2 |[M:4/4] x8 |[M:3/4] x6 |] %18
V:5
 x8 | x8 | x8 | x8 | x8 | x8 | x8 | x8 |[M:3/4] x6 |[M:1/4] x2 |[M:4/4] x8 | x8 | x8 | x8 | %14
 z4 z2 B,,2 |[M:9/8] x9 |[M:4/4] x8 |[M:3/4] x6 |] %18

